src/assets/icons/linkedin_logo.svg

<?xml version="1.0" encoding="UTF-8" standalone="no"?><svg
   width="48" height="48" viewBox="0 0 48 48" fill="none" version="1.1" id="svg1" 
   sodipodi:docname="linkedin_logo.svg" inkscape:version="1.3.2 (091e20e, 2023-11-25, custom)"
   xmlns:inkscape="http://www.inkscape.org/namespaces/inkscape"
   xmlns:sodipodi="http://sodipodi.sourceforge.net/DTD/sodipodi-0.dtd"
   xmlns="http://www.w3.org/2000/svg" xmlns:svg="http://www.w3.org/2000/svg">
  <defs id="defs1" />
  <sodipodi:namedview id="namedview1" pagecolor="#505050" bordercolor="#eeeeee" borderopacity="1"
   inkscape:showpageshadow="0" inkscape:pageopacity="0" inkscape:pagecheckerboard="0"
   inkscape:deskcolor="#505050" inkscape:zoom="16.9375" inkscape:cx="24" inkscape:cy="24"
   inkscape:window-width="1920" inkscape:window-height="1009" inkscape:window-x="-8"
   inkscape:window-y="-8" inkscape:window-maximized="1" inkscape:current-layer="svg1" />
  <path fill-rule="evenodd" clip-rule="evenodd"
     d="M0 24C0 10.7452 10.7452 0 24 0C37.2548 0 48 10.7452 48 24C48 37.2548 37.2548 48 24 48C10.7452 48 0 37.2548 0 24ZM16.9605 19.8778H11.5216V36.2196H16.9605V19.8778ZM17.3188 14.8227C17.2835 13.2204 16.1377 12 14.277 12C12.4164 12 11.2 13.2204 11.2 14.8227C11.2 16.3918 12.3805 17.6473 14.2064 17.6473H14.2412C16.1377 17.6473 17.3188 16.3918 17.3188 14.8227ZM36.5754 26.8497C36.5754 21.8303 33.8922 19.4941 30.3131 19.4941C27.4254 19.4941 26.1326 21.0802 25.4107 22.1929V19.8783H19.9711C20.0428 21.4117 19.9711 36.22 19.9711 36.22H25.4107V27.0934C25.4107 26.605 25.446 26.1178 25.5898 25.7681C25.9829 24.7924 26.8779 23.7822 28.3805 23.7822C30.3494 23.7822 31.1365 25.2807 31.1365 27.4767V36.2196H36.5752L36.5754 26.8497Z"
     fill="black" id="path1" style="fill:#dfff60;fill-opacity:1" /> </svg>

<svg width="48" height="48" fill="none" xmlns="http://www.w3.org/2000/svg"><path fill-rule="evenodd" clip-rule="evenodd" d="M0 24C0 10.745 10.745 0 24 0s24 10.745 24 24-10.745 24-24 24S0 37.255 0 24zm16.96-4.122h-5.438V36.22h5.438V19.878zm.359-5.055C17.284 13.22 16.138 12 14.277 12c-1.86 0-3.077 1.22-3.077 2.823 0 1.569 1.18 2.824 3.006 2.824h.035c1.897 0 3.078-1.255 3.078-2.824zM36.575 26.85c0-5.02-2.683-7.356-6.262-7.356-2.888 0-4.18 1.586-4.902 2.699v-2.315h-5.44c.072 1.534 0 16.342 0 16.342h5.44v-9.127c0-.488.035-.975.179-1.325.393-.976 1.288-1.986 2.79-1.986 1.97 0 2.757 1.499 2.757 3.695v8.743h5.438v-9.37z" fill="#000" style="fill:#dfff60;fill-opacity:1"/></svg>
